Front/static/img/kkutu/intro/kkutu_logo.svg

<svg width="357" height="63" viewBox="0 0 357 63" fill="none" xmlns="http://www.w3.org/2000/svg">
<path d="M131.76 24.14C124.02 24.38 92.58 24.38 85.5 24.14C85.32 21.68 85.32 19.52 85.5 17.18C87 17.12 89.76 17.12 93.12 17.06V12.86C90.06 12.8 87.6 12.8 86.1 12.74C85.92 10.4 85.92 8 86.1 5.78C96.06 5.6 125.58 5.54 131.16 5.78C131.28 8 131.28 10.1 131.16 12.74C129.6 12.8 127.08 12.8 124.08 12.86V17.06C127.44 17.12 130.14 17.12 131.76 17.18C131.94 19.52 131.94 21.38 131.76 24.14ZM101.94 12.92V17.06C106.26 17 110.94 17 115.26 17V12.92C110.94 12.92 106.26 12.92 101.94 12.92ZM134.4 26.48C134.64 28.58 134.64 31.16 134.4 33.5C129.24 33.86 89.88 33.74 82.8 33.5C82.56 31.46 82.56 28.7 82.8 26.48C95.28 26.24 128.76 26.36 134.4 26.48ZM95.16 50.9V52.82H132.3C132.54 54.8 132.42 57.56 132.3 59.48C128.4 59.78 93.78 59.84 86.1 59.48C85.86 56.18 85.74 50.06 86.1 44.54H121.86V42.62H86.22C85.98 40.64 85.98 37.28 86.22 35.9C103.68 35.72 123.54 35.72 130.92 35.9C131.22 38.24 131.22 48.32 130.92 50.9H95.16ZM187.795 5.3C188.035 13.52 188.035 52.16 187.795 59.3C185.935 59.54 180.895 59.48 178.795 59.3C178.675 56.06 178.615 45.5 178.615 34.52C175.135 34.52 171.775 34.46 170.695 34.34C170.455 32.06 170.455 28.1 170.695 25.82C172.135 25.76 175.435 25.7 178.675 25.7C178.675 16.4 178.735 8.12 178.795 5.3C180.415 4.94 185.695 5 187.795 5.3ZM149.335 47.24C154.675 47.06 166.615 47.12 171.655 47.24C171.895 49.52 171.895 53 171.655 55.28C167.935 55.46 145.555 55.52 140.095 55.28C139.675 48.2 139.735 34.04 140.095 27.14C144.175 27.02 154.915 27.08 158.215 27.14C158.215 23.78 158.215 18.02 158.275 15.02C154.495 15.08 144.175 15.14 140.335 15.02C140.095 12.74 140.095 9.26 140.335 6.98C144.115 6.74 163.375 6.74 167.455 6.98C167.875 14 167.815 28.22 167.455 35.12C163.375 35.36 155.275 35.18 149.395 35.12C149.395 38.48 149.395 44.24 149.335 47.24ZM200.751 41.42C199.431 40.46 195.831 36.68 194.871 34.82C199.551 30.62 207.831 23.48 214.131 17.96C214.071 13.22 214.131 9.56 214.251 6.8C215.871 6.62 221.631 6.56 223.731 6.8C223.851 9.92 223.911 13.58 223.851 18.02C230.271 23.36 238.671 30.26 243.411 34.28C242.451 36.14 238.971 40.04 237.711 41.06C234.471 38.48 225.831 31.64 219.111 25.64C212.451 31.76 204.051 38.84 200.751 41.42ZM244.791 50.06C245.031 52.28 245.031 55.34 244.791 57.86C239.631 58.22 200.271 58.1 193.191 57.86C192.951 55.7 192.951 52.4 193.191 50.06C205.671 49.82 239.151 49.94 244.791 50.06ZM263.086 43.28C263.146 41.54 263.146 17.24 263.086 15.26C261.946 15.2 251.746 15.2 250.486 15.26C250.246 12.92 250.246 9.68 250.486 7.46C253.486 7.28 269.446 7.34 271.726 7.46C272.146 10.82 272.086 39.92 271.726 43.28C270.166 43.58 265.246 43.52 263.086 43.28ZM287.446 43.28C287.506 41.54 287.506 17.24 287.446 15.26C286.306 15.2 276.106 15.2 274.846 15.26C274.606 12.92 274.606 9.68 274.846 7.46C277.846 7.28 293.806 7.34 296.086 7.46C296.506 10.82 296.446 39.92 296.086 43.28C294.526 43.58 289.606 43.52 287.446 43.28ZM248.386 57.86C248.146 55.7 248.146 52.4 248.386 50.06C260.866 49.82 294.346 49.94 299.986 50.06C300.226 52.28 300.226 55.34 299.986 57.86C294.826 58.22 255.466 58.1 248.386 57.86ZM352.541 36.32C347.621 36.56 312.761 36.5 306.881 36.32C306.521 29.3 306.581 13.82 306.881 6.86C312.701 6.56 345.341 6.68 351.341 6.86C351.581 9.14 351.581 12.32 351.341 14.6C347.141 14.72 320.681 14.72 316.181 14.6C316.181 15.32 316.181 16.52 316.121 17.84C323.981 17.78 344.741 17.84 349.541 17.84C349.781 20.12 349.721 23.18 349.541 25.46C344.921 25.58 323.981 25.52 316.121 25.46C316.181 26.84 316.181 27.92 316.181 28.64C320.921 28.64 348.101 28.58 352.541 28.64C352.721 30.98 352.721 34.4 352.541 36.32ZM355.181 39.98C355.421 42.2 355.421 45.26 355.181 47.78C352.901 47.96 343.961 48.02 334.061 48.02C334.061 52.16 334.061 57.32 334.001 59.6C332.021 59.72 327.221 59.72 324.821 59.6C324.761 57.62 324.701 52.34 324.701 48.02C315.281 47.96 306.581 47.9 303.581 47.78C303.341 45.62 303.341 42.32 303.581 39.98C316.061 39.74 349.541 39.86 355.181 39.98Z" fill="#334155"/>
<rect y="27" width="23" height="12" fill="#8B5CF6"/>
<path d="M23 27L35 39L23 39L23 27Z" fill="#C084FC"/>
<rect x="23" y="62" width="23" height="12" transform="rotate(-90 23 62)" fill="#8B5CF6"/>
<rect x="60" y="37" width="23" height="12" transform="rotate(-180 60 37)" fill="#3B82F6"/>
<rect x="37" y="2" width="23" height="12" transform="rotate(90 37 2)" fill="#3B82F6"/>
<path d="M37 37L25 25H37V37Z" fill="#60A5FA"/>
</svg>

<svg fill="none" viewBox="0 0 357 63"><path fill="#334155" d="M131.76 24.14c-7.74.24-39.18.24-46.26 0-.18-2.46-.18-4.62 0-6.96 1.5-.06 4.26-.06 7.62-.12v-4.2c-3.06-.06-5.52-.06-7.02-.12-.18-2.34-.18-4.74 0-6.96 9.96-.18 39.48-.24 45.06 0 .12 2.22.12 4.32 0 6.96-1.56.06-4.08.06-7.08.12v4.2c3.36.06 6.06.06 7.68.12.18 2.34.18 4.2 0 6.96zm-29.82-11.22v4.14c4.32-.06 9-.06 13.32-.06v-4.08h-13.32zm32.46 13.56c.24 2.1.24 4.68 0 7.02-5.16.36-44.52.24-51.6 0-.24-2.04-.24-4.8 0-7.02 12.48-.24 45.96-.12 51.6 0zM95.16 50.9v1.92h37.14c.24 1.98.12 4.74 0 6.66-3.9.3-38.52.36-46.2 0-.24-3.3-.36-9.42 0-14.94h35.76v-1.92H86.22c-.24-1.98-.24-5.34 0-6.72 17.46-.18 37.32-.18 44.7 0 .3 2.34.3 12.42 0 15H95.16zm92.635-45.6c.24 8.22.24 46.86 0 54-1.86.24-6.9.18-9 0-.12-3.24-.18-13.8-.18-24.78-3.48 0-6.84-.06-7.92-.18-.24-2.28-.24-6.24 0-8.52 1.44-.06 4.74-.12 7.98-.12 0-9.3.06-17.58.12-20.4 1.62-.36 6.9-.3 9 0zm-38.46 41.94c5.34-.18 17.28-.12 22.32 0 .24 2.28.24 5.76 0 8.04-3.72.18-26.1.24-31.56 0-.42-7.08-.36-21.24 0-28.14 4.08-.12 14.82-.06 18.12 0 0-3.36 0-9.12.06-12.12-3.78.06-14.1.12-17.94 0-.24-2.28-.24-5.76 0-8.04 3.78-.24 23.04-.24 27.12 0 .42 7.02.36 21.24 0 28.14-4.08.24-12.18.06-18.06 0 0 3.36 0 9.12-.06 12.12zm51.416-5.82c-1.32-.96-4.92-4.74-5.88-6.6 4.68-4.2 12.96-11.34 19.26-16.86-.06-4.74 0-8.4.12-11.16 1.62-.18 7.38-.24 9.48 0 .12 3.12.18 6.78.12 11.22 6.42 5.34 14.82 12.24 19.56 16.26-.96 1.86-4.44 5.76-5.7 6.78-3.24-2.58-11.88-9.42-18.6-15.42-6.66 6.12-15.06 13.2-18.36 15.78zm44.04 8.64c.24 2.22.24 5.28 0 7.8-5.16.36-44.52.24-51.6 0-.24-2.16-.24-5.46 0-7.8 12.48-.24 45.96-.12 51.6 0zm18.295-6.78c.06-1.74.06-26.04 0-28.02-1.14-.06-11.34-.06-12.6 0-.24-2.34-.24-5.58 0-7.8 3-.18 18.96-.12 21.24 0 .42 3.36.36 32.46 0 35.82-1.56.3-6.48.24-8.64 0zm24.36 0c.06-1.74.06-26.04 0-28.02-1.14-.06-11.34-.06-12.6 0-.24-2.34-.24-5.58 0-7.8 3-.18 18.96-.12 21.24 0 .42 3.36.36 32.46 0 35.82-1.56.3-6.48.24-8.64 0zm-39.06 14.58c-.24-2.16-.24-5.46 0-7.8 12.48-.24 45.96-.12 51.6 0 .24 2.22.24 5.28 0 7.8-5.16.36-44.52.24-51.6 0zm104.155-21.54c-4.92.24-39.78.18-45.66 0-.36-7.02-.3-22.5 0-29.46 5.82-.3 38.46-.18 44.46 0 .24 2.28.24 5.46 0 7.74-4.2.12-30.66.12-35.16 0 0 .72 0 1.92-.06 3.24 7.86-.06 28.62 0 33.42 0 .24 2.28.18 5.34 0 7.62-4.62.12-25.56.06-33.42 0 .06 1.38.06 2.46.06 3.18 4.74 0 31.92-.06 36.36 0 .18 2.34.18 5.76 0 7.68zm2.64 3.66c.24 2.22.24 5.28 0 7.8-2.28.18-11.22.24-21.12.24 0 4.14 0 9.3-.06 11.58-1.98.12-6.78.12-9.18 0-.06-1.98-.12-7.26-.12-11.58-9.42-.06-18.12-.12-21.12-.24-.24-2.16-.24-5.46 0-7.8 12.48-.24 45.96-.12 51.6 0z"/><path fill="#8B5CF6" d="M0 27h23v12H0z"/><path fill="#C084FC" d="M23 27l12 12H23V27z"/><path fill="#8B5CF6" d="M23 62V39h12v23z"/><path fill="#3B82F6" d="M60 37H37V25h23zM37 2v23H25V2z"/><path fill="#60A5FA" d="M37 37L25 25h12v12z"/></svg>
